!! 00000] TT[
!!!OTL: Qing nian can jun
!!!ARE: Asia, China,ÿDongbei, Diqu
!! Ethnic Group: Han
!! MM, ZHONGGUO MINGE XUAN S.42
!!!SCT: C1297
!!!YEM: Copyright 1995, estate of Helmut Schaffrath.
**kern
*ICvox
*Ivox
*M2/4
*k[f#c#g#d#]
*E:
{8ee
8ee
8b
8cc#
=1
4.b
8cc#
=2
8ee
8ee
8b
8cc#
=3
2b}
=4
{8g#
8b
8cc#
16b
16cc#
=5
8ee
8ee
8cc#
8b
=6
8b
8g#
8f#
8g#
=7
8b
8g#
4b}
=8
{8cc#
8b
8cc#
16b
16cc#
=9
8ee
8ee
8cc#
8b
=10
8g#
4g#
8cc#
=11
8b
8cc#
8b
8g#}
=12
{8f#
8e
8f#
8f#
=13
8r
4b
8g#
=14
8f#
8b
8g#
8f#
=15
8e
4e
8f#
=16
2e}
=17
{8cc#
8b
8cc#
8ff#
=18
8ee
8cc#
8b
8g#}
=19
{8f#
8e
8f#
8f#
=20
8r
4b
8g#
=21
8f#
8b
8g#
8f#
=22
8e
4e
8f#
=23
2e}
==
!!!AGN: Xiaodiao, Xiu Luoqun Diao, Jiandianhua diao. Geming lishi minge
!! Pinyin-Text der ersten Strophe vorhanden!
!!!ONB: ESAC (Essen Associative Code) Database: CHINA
!!!AMT: simple duple
!!!AIN: vox
!!!EED: Helmut Schaffrath
!!!EEV: 1.0
*-
